!!!COM: Henri Reber
!!!CNT: Francais
!!!TXO: Francais
!!!OTL: Les Hirondelles
!!!LYR: Jean-Pierre Claris de Florian
!!!ODT: 1849/
!!!ENC: Jacob Pegg
!!!YOR: Romantic French Song 1830-1870, David Tunley, ed., New York: Garland Publishing, Inc., 1995, vol. 3
!!NB: Vocal melody and text only encoded.
!!NB: First instance of melodic material only encoded.
**kern	**silbe
*clef G2	*
*k[f#]	*
*M6/8	*
=4	=4
4r	.
8r	.
4r	.
{8dd	{Que
=5	=5
4ee	j'aime
8dd	a\-
4b	-voir
8b	les
=6	=6
4g	hi-
8a	-ron-
4b	-del-
8b	-les,
=7	=7
8b	A
8b	ma
8b	fe-
4a#	-ne^-
8b	-tre
=8	=8
(8cc#	tous
8dd)	|
8ee	les
4dd}	ans,}
{8dd	{Ve-
=9	=9
4ee	-nir
8dd	m'ap-
4b	-por-
8b	-ter
=10	=10
4g	des
8a	nou-
4b	-vel-
8b	-les
=11	=11
4cc	De
8b	l'ap-
8ee	-pro-
8ee	-che
8dd	du
=12	=12
4b	doux
8a	prin-
4g}	-temps!}
{8g	{Le
=13	=13
4a	me^-
8g#	-me
4a	nid,
8a	me
=14	=14
4b	di-
8cc	-sent~
(8ee	~el-
8dd)	|
8b	-les,
=15	=15
4dd	Va
8ee	re-
4cc	-voir
8dd	les
=16	=16
8b	me^-
8b	-mes
8cc	a-
4a}	-mours;}
8r	.
=17	=17
{8b	{Ce
8b	n'est
8b	qu'a\
4dd	des
8cc	a-
=18	=18
4b	-mants
8b	fi-
(8.a	-de\-
16b)	|
8g	-les
=19	=19
8g	A
8g	vous
8g	a-
4b	-non-
8b	-cer
=20	=20
4a	Les
8a	beaux
4.a}	jours.}
=21	=21
{8b	{Ce
8b	n'est
8b	qu'a\
4dd	des
8cc	a-
=22	=22
4b	-mants
8b	fi-
(8.a	-de\-
16b)	|
8g	-les
=23	=23
8g	A
8g	vous
8g	an-
4b	-non-
8g	-cer
=24	=24
4b	Les
8f#	beaux
4.g}	jours.}
*-	*-
